themes/icons/svg/chain-broken.svg

<svg xmlns="http://www.w3.org/2000/svg" width="29.92" height="29.921" style="enable-background:new 0 0 29.92 29.921" xml:space="preserve"><path fill="#fff" d="M1.676 13.21a5.737 5.737 0 0 1 0-8.104l3.429-3.431a5.74 5.74 0 0 1 8.104 0l5.571 5.574-2.827 2.828-5.572-5.574a1.733 1.733 0 0 0-2.447 0l-3.43 3.431a1.73 1.73 0 0 0 0 2.446l5.573 5.574L7.25 18.78l-5.574-5.57zm26.568 3.504L22.67 11.14l-2.828 2.828 5.573 5.574a1.73 1.73 0 0 1 0 2.446l-3.43 3.429a1.733 1.733 0 0 1-2.447 0l-5.573-5.572-2.828 2.828 5.574 5.572a5.715 5.715 0 0 0 4.053 1.676c1.467 0 2.935-.56 4.052-1.676l3.43-3.429a5.737 5.737 0 0 0-.002-8.102zm-.793-12.947-1.414-1.414-3.772 3.771 1.414 1.414 3.772-3.771zm-3.542 5.928 5.149 1.383.52-1.934-5.151-1.381-.518 1.932zm-1.873-4.32L20.654.223l-1.932.52 1.381 5.151 1.933-.519zM2.585 25.804 4 27.218l3.771-3.771-1.414-1.413-3.772 3.77zm5.414-1.613 1.382 5.152 1.932-.518-1.381-5.152-1.933.518zm-1.874-4.32L.974 18.488l-.518 1.934 5.15 1.381.519-1.932z"/></svg>

<?xml version="1.0" encoding="iso-8859-1"?>
<!-- Generator: Adobe Illustrator 16.0.0, SVG Export Plug-In . SVG Version: 6.00 Build 0)  -->
<!DOCTYPE svg PUBLIC "-//W3C//DTD SVG 1.1//EN" "http://www.w3.org/Graphics/SVG/1.1/DTD/svg11.dtd">
<svg version="1.1" id="Capa_1" xmlns="http://www.w3.org/2000/svg" xmlns:xlink="http://www.w3.org/1999/xlink" x="0px" y="0px"
	 width="29.92px" height="29.921px" viewBox="0 0 29.92 29.921" style="enable-background:new 0 0 29.92 29.921;"
	 xml:space="preserve">
<g>
	<path fill="#ffffff" d="M1.676,13.21c-2.234-2.234-2.234-5.869,0-8.104l3.429-3.431c2.233-2.233,5.868-2.233,8.104,0l5.571,5.574l-2.827,2.828
		l-5.572-5.574c-0.677-0.674-1.771-0.674-2.447,0l-3.43,3.431c-0.675,0.674-0.675,1.771,0,2.446l5.573,5.574L7.25,18.78L1.676,13.21
		z M28.244,16.714L22.67,11.14l-2.828,2.828l5.573,5.574c0.675,0.675,0.675,1.771,0,2.446l-3.43,3.429
		c-0.678,0.675-1.772,0.673-2.447,0l-5.573-5.572l-2.828,2.828l5.574,5.572c1.116,1.116,2.584,1.676,4.053,1.676
		c1.467,0,2.935-0.56,4.052-1.676l3.43-3.429C30.478,22.583,30.478,18.947,28.244,16.714z M27.451,3.767l-1.414-1.414l-3.772,3.771
		l1.414,1.414L27.451,3.767z M23.909,9.695l5.149,1.383l0.52-1.934l-5.151-1.381L23.909,9.695z M22.036,5.375l-1.382-5.152
		l-1.932,0.52l1.381,5.151L22.036,5.375z M2.585,25.804L4,27.218l3.771-3.771l-1.414-1.413L2.585,25.804z M7.999,24.191l1.382,5.152
		l1.932-0.518l-1.381-5.152L7.999,24.191z M6.125,19.871l-5.151-1.383l-0.518,1.934l5.15,1.381L6.125,19.871z"/>
</g>
<g>
</g>
<g>
</g>
<g>
</g>
<g>
</g>
<g>
</g>
<g>
</g>
<g>
</g>
<g>
</g>
<g>
</g>
<g>
</g>
<g>
</g>
<g>
</g>
<g>
</g>
<g>
</g>
<g>
</g>
</svg>
